X:1
T:Jumpin' Judy
M:4/4
L:1/8
K:C
 cA| cA AGA-E E- G-| G4 z2 EE| GG BBd-e e- B-| B4 z2| ge| ge dBd-e e- A-|\
 A4 z2 G2| EE e2d-c-c-A| A4 z2| G2| EE e2d-c c- A-| A4 z2||
